X:1
T:Title
%%score ( 1 2 ) ( 3 4 )
L:1/8
Q:1/4=140
M:3/4
K:F
V:1 treble nm="Grand Piano, Unnamed-000"
V:2 treble 
V:3 bass nm="Choir Pad, Aletta"
V:4 bass 
V:1
 A2 c2 [CF]2 | [EG]4 [EG]2 | [EG]2 [DF]2 [EG]2 | [FA]6 | A2 c2 [CF]2 | [EG]4 [EG]2 | G2 A2 [EG]2 | %7
w: By~William~Batchelder~Bradbury~(1816\-1868) * *|||||||
 [CF]6 | [FB]4 [FB]2 | [FA]4 [FA]2 | [CG]4 [DF]2 | [Ec]6 | c2 A2 F2 | [EG]4 [EG]2 | G2 A2 [EG]2 | %15
w: ||||||||
 [CF]6- | [CF]6 |] %17
w: ||
V:2
 F4 z2 | x6 | x6 | x6 | F4 z2 | x6 | E4 z2 | x6 | x6 | x6 | x6 | x6 | F4 z2 | x6 | E4 z2 | x6 | %16
 x6 |] %17
V:3
 C2 A,2 [F,A,]2 | [C,C]4 [C,C]2 | [C,C]4 [C,C]2 | [F,C]6 | C2 A,2 [F,A,]2 | [C,C]4 [C,C]2 | %6
 B,2 C2 [C,B,]2 | [F,A,]6 | [F,D]4 [F,D]2 | [F,C]4 [F,C]2 | [E,C]4 [D,=B,]2 | [C,C]6 | %12
 A,2 C2 [F,A,]2 | [C,C]4 [C,C]2 | B,2 C2 [C,B,]2 | [F,A,]6- | [F,A,]6 |] %17
V:4
 F,4 z2 | x6 | x6 | x6 | F,4 z2 | x6 | C,4 z2 | x6 | x6 | x6 | x6 | x6 | F,4 z2 | x6 | C,4 z2 | %15
 x6 | x6 |] %17

